storage/app/icons/phosphoricons/regular/chalkboard-simple.svg

<svg xmlns="http://www.w3.org/2000/svg" fill="currentColor" viewBox="0 0 256 256"><path d="M240 192h-8v-24a8 8 0 0 0-8-8h-64a8 8 0 0 0-8 8v24H40V56h176v80a8 8 0 0 0 16 0V56a16 16 0 0 0-16-16H40a16 16 0 0 0-16 16v136h-8a8 8 0 0 0 0 16h224a8 8 0 0 0 0-16m-72-16h48v16h-48Z"/></svg>

<svg xmlns="http://www.w3.org/2000/svg" viewBox="0 0 256 256" fill="currentColor"><path d="M240,192h-8V168a8,8,0,0,0-8-8H160a8,8,0,0,0-8,8v24H40V56H216v80a8,8,0,0,0,16,0V56a16,16,0,0,0-16-16H40A16,16,0,0,0,24,56V192H16a8,8,0,0,0,0,16H240a8,8,0,0,0,0-16Zm-72-16h48v16H168Z"/></svg>
